X: 342
T: WE MET AT THE FAIR
T: Do theatmhar ag an aonach
B: O'Neill's 342
M: 6/8
L: 1/8
Z: 1999 by John Chambers <jc@trillian.mit.edu>
N: "Gaily"
N: "Collected by F.O'Neill"
K:A
(c/d/) \
|eAB GFE|TcBc dcd|ede cAF|G3- G3 c/d/|
|eAB GFE|TcBc eag|fde cAB|A3 A2||
||A/B/ \
|ccd eef|agec d2c/d/|eAB dcAF|G3- G3 c/d/|
|eAB GFE|TcBc eag|fde cAB|A3 A2||
